; generated by PrusaSlicer 2.5.0+MacOS-arm64 on 2024-04-28 at 11:25:18 UTC


;
;

;
;
; 

; external perimeters extrusion width = 0.45mm
; perimeters extrusion width = 0.45mm
; infill extrusion width = 0.45mm
; solid infill extrusion width = 0.45mm
; top infill extrusion width = 0.40mm
; first layer extrusion width = 0.42mm

M73 P0 R53
M201 X2500 Y2500 Z400 E5000 ; sets maximum accelerations, mm/sec^2
M203 X180 Y180 Z12 E80 ; sets maximum feedrates, mm / sec
M204 P1250 R1250 T2500 ; sets acceleration (P, T) and retract acceleration (R), mm/sec^2
M205 X8.00 Y8.00 Z2.00 E10.00 ; sets the jerk limits, mm/sec
M205 S0 T0 ; sets the minimum extruding and travel feed rate, mm/sec
M107
;TYPE:Custom
M862.3 P "MINI" ; printer model check
G90 ; use absolute coordinates
M83 ; extruder relative mode
M104 S170 ; set extruder temp for bed leveling
M140 S60 ; set bed temp
M109 R170 ; wait for bed leveling temp
M190 S60 ; wait for bed temp
M204 T1250 ; set travel acceleration
G28 ; home all without mesh bed level
G29 ; mesh bed leveling 
M204 T2500 ; restore travel acceleration
M104 S215 ; set extruder temp
G92 E0
G1 Y-2 X179 F2400
G1 Z3 F720
M109 S215 ; wait for extruder temp

; intro line
G1 X170 F1000
G1 Z0.2 F720
G1 X110 E8 F900
G1 X40 E10 F700
G92 E0

M221 S95 ; set flow
G21 ; set units to millimeters
G90 ; use absolute coordinates
M83 ; use relative distances for extrusion
M900 K0.2 ; Filament gcode LA 1.5
; ; Filament gcode LA 1.0
M107
;LAYER_CHANGE
;Z:0.2
;HEIGHT:0.2
;BEFORE_LAYER_CHANGE
G92 E0.0
;0.2


G1 E-3.2 F4200
G1 Z.2 F720
;AFTER_LAYER_CHANGE
;0.2
G1 Z.4
G1 X2.145 Y84.609 F9000
G1 Z.2 F720
G1 E3.2 F2400
M204 P800
;TYPE:Skirt/Brim
;WIDTH:0.42
G1 F1200
G1 X174.585 Y84.609 E5.40674
G1 X175.892 Y85 E.04278
G1 X176.768 Y86.046 E.04278
G1 X176.962 Y86.986 E.03008
G1 X176.962 Y106.507 E.61208
G1 X176.57 Y107.814 E.04278
G1 X175.524 Y108.691 E.04278
G1 X174.585 Y108.885 E.03008
G1 X2.145 Y108.885 E5.40674
G1 X.838 Y108.493 E.04278
M73 P1 R53
G1 X-.039 Y107.447 E.04278
G1 X-.232 Y106.507 E.03008
G1 X-.232 Y86.986 E.61208
G1 X.159 Y85.679 E.04278
G1 X1.205 Y84.802 E.04278
G1 X2.086 Y84.621 E.0282
M204 P1000
; printing object ctf v1.stl id:0 copy 0
G1 E-2.24 F4200
;WIPE_START
G1 F7200
G1 X3.732 Y84.621 E-.912
;WIPE_END
G1 E-.048 F4200
G1 Z.4 F720
G1 X2.932 Y87.773 F9000
G1 Z.2 F720
G1 E3.2 F2400
M204 P800
;TYPE:Perimeter
;WIDTH:0.419999
G1 F1200
G1 X173.798 Y87.773 E5.35737
G1 X173.798 Y105.72 E.56273
G1 X2.932 Y105.72 E5.35737
G1 X2.932 Y87.833 E.56084
M204 P1000
G1 X2.555 Y87.396 F9000
M204 P800
;TYPE:External perimeter
G1 F1200
G1 X174.175 Y87.396 E5.38102
G1 X174.175 Y106.097 E.58637
M73 P1 R52
G1 X2.555 Y106.097 E5.38102
M73 P2 R52
G1 X2.555 Y87.456 E.58449
M204 P1000
G1 X2.954 Y87.41 F9000
G1 E-2.24 F4200
;WIPE_START
G1 F7200
G1 X4.2 Y87.455 E-.912
;WIPE_END
G1 E-.048 F4200
G1 Z.4 F720
G1 X172.921 Y87.886 F9000
G1 Z.2 F720
G1 E3.2 F2400
M204 P800
;TYPE:Solid infill
;WIDTH:0.420383
G1 F1200
G1 X173.515 Y88.48 E.02634
G1 X173.515 Y89.013 E.01675
G1 X172.557 Y88.056 E.0425
G1 X172.023 Y88.056 E.01675
G1 X173.515 Y89.547 E.0662
G1 X173.515 Y90.081 E.01675
G1 X171.49 Y88.056 E.08989
G1 X170.956 Y88.056 E.01675
G1 X173.515 Y90.615 E.11358
G1 X173.515 Y91.149 E.01675
G1 X170.422 Y88.056 E.13728
G1 X169.888 Y88.056 E.01675
G1 X173.515 Y91.682 E.16097
G1 X173.515 Y92.216 E.01675
G1 X169.354 Y88.056 E.18467
G1 X168.821 Y88.056 E.01675
G1 X173.515 Y92.75 E.20836
G1 X173.515 Y93.284 E.01675
G1 X168.287 Y88.056 E.23206
G1 X167.753 Y88.056 E.01675
G1 X173.515 Y93.818 E.25575
G1 X173.515 Y94.351 E.01675
G1 X167.219 Y88.056 E.27944
G1 X166.685 Y88.056 E.01675
G1 X173.515 Y94.885 E.30314
G1 X173.515 Y95.419 E.01675
G1 X166.152 Y88.056 E.32683
G1 X165.618 Y88.056 E.01675
G1 X173.515 Y95.953 E.35053
G1 X173.515 Y96.487 E.01675
G1 X165.084 Y88.056 E.37422
G1 X164.55 Y88.056 E.01675
G1 X173.515 Y97.021 E.39792
G1 X173.515 Y97.554 E.01675
G1 X164.016 Y88.056 E.42161
G1 X163.482 Y88.056 E.01675
G1 X173.515 Y98.088 E.4453
G1 X173.515 Y98.622 E.01675
G1 X162.949 Y88.056 E.469
G1 X162.415 Y88.056 E.01675
G1 X173.515 Y99.156 E.49269
G1 X173.515 Y99.69 E.01675
G1 X161.881 Y88.056 E.51639
G1 X161.347 Y88.056 E.01675
G1 X173.515 Y100.223 E.54008
G1 X173.515 Y100.757 E.01675
G1 X160.813 Y88.056 E.56377
G1 X160.28 Y88.056 E.01675
G1 X173.515 Y101.291 E.58747
G1 X173.515 Y101.825 E.01675
G1 X159.746 Y88.056 E.61116
G1 X159.212 Y88.056 E.01675
G1 X173.515 Y102.359 E.63486
G1 X173.515 Y102.892 E.01675
G1 X158.678 Y88.056 E.65855
G1 X158.144 Y88.056 E.01675
G1 X173.515 Y103.426 E.68225
G1 X173.515 Y103.96 E.01675
G1 X157.611 Y88.056 E.70594
G1 X157.077 Y88.056 E.01675
G1 X173.515 Y104.494 E.72963
G1 X173.515 Y105.028 E.01675
G1 X156.543 Y88.056 E.75333
G1 X156.009 Y88.056 E.01675
M73 P3 R52
G1 X173.391 Y105.438 E.77152
G1 X172.857 Y105.438 E.01675
G1 X155.475 Y88.056 E.77152
G1 X154.941 Y88.056 E.01675
G1 X172.323 Y105.438 E.77152
G1 X171.789 Y105.438 E.01675
G1 X154.408 Y88.056 E.77152
G1 X153.874 Y88.056 E.01675
G1 X171.256 Y105.438 E.77152
G1 X170.722 Y105.438 E.01675
G1 X153.34 Y88.056 E.77152
G1 X152.806 Y88.056 E.01675
G1 X170.188 Y105.438 E.77152
G1 X169.654 Y105.438 E.01675
G1 X152.272 Y88.056 E.77152
G1 X151.739 Y88.056 E.01675
G1 X169.12 Y105.438 E.77152
G1 X168.587 Y105.438 E.01675
G1 X151.205 Y88.056 E.77152
G1 X150.671 Y88.056 E.01675
G1 X168.053 Y105.438 E.77152
G1 X167.519 Y105.438 E.01675
G1 X150.137 Y88.056 E.77152
G1 X149.603 Y88.056 E.01675
G1 X166.985 Y105.438 E.77152
G1 X166.451 Y105.438 E.01675
G1 X149.07 Y88.056 E.77152
G1 X148.536 Y88.056 E.01675
G1 X165.917 Y105.438 E.77152
G1 X165.384 Y105.438 E.01675
G1 X148.002 Y88.056 E.77152
G1 X147.468 Y88.056 E.01675
M73 P3 R51
G1 X164.85 Y105.438 E.77152
G1 X164.316 Y105.438 E.01675
G1 X146.934 Y88.056 E.77152
G1 X146.4 Y88.056 E.01675
G1 X163.782 Y105.438 E.77152
G1 X163.248 Y105.438 E.01675
G1 X145.867 Y88.056 E.77152
G1 X145.333 Y88.056 E.01675
G1 X162.715 Y105.438 E.77152
G1 X162.181 Y105.438 E.01675
G1 X144.799 Y88.056 E.77152
G1 X144.265 Y88.056 E.01675
G1 X161.647 Y105.438 E.77152
G1 X161.113 Y105.438 E.01675
G1 X143.731 Y88.056 E.77152
G1 X143.198 Y88.056 E.01675
G1 X160.579 Y105.438 E.77152
G1 X160.046 Y105.438 E.01675
G1 X142.664 Y88.056 E.77152
G1 X142.13 Y88.056 E.01675
M73 P4 R51
G1 X159.512 Y105.438 E.77152
G1 X158.978 Y105.438 E.01675
G1 X141.596 Y88.056 E.77152
G1 X141.062 Y88.056 E.01675
G1 X158.444 Y105.438 E.77152
G1 X157.91 Y105.438 E.01675
G1 X140.528 Y88.056 E.77152
G1 X139.995 Y88.056 E.01675
G1 X157.376 Y105.438 E.77152
G1 X156.843 Y105.438 E.01675
G1 X139.461 Y88.056 E.77152
G1 X138.927 Y88.056 E.01675
G1 X156.309 Y105.438 E.77152
G1 X155.775 Y105.438 E.01675
G1 X138.393 Y88.056 E.77152
G1 X137.859 Y88.056 E.01675
G1 X155.241 Y105.438 E.77152
G1 X154.707 Y105.438 E.01675
G1 X137.326 Y88.056 E.77152
G1 X136.792 Y88.056 E.01675
G1 X154.174 Y105.438 E.77152
G1 X153.64 Y105.438 E.01675
G1 X136.258 Y88.056 E.77152
G1 X135.724 Y88.056 E.01675
G1 X153.106 Y105.438 E.77152
G1 X152.572 Y105.438 E.01675
G1 X135.19 Y88.056 E.77152
G1 X134.657 Y88.056 E.01675
G1 X152.038 Y105.438 E.77152
G1 X151.505 Y105.438 E.01675
G1 X134.123 Y88.056 E.77152
G1 X133.589 Y88.056 E.01675
G1 X150.971 Y105.438 E.77152
G1 X150.437 Y105.438 E.01675
G1 X133.055 Y88.056 E.77152
G1 X132.521 Y88.056 E.01675
G1 X149.903 Y105.438 E.77152
G1 X149.369 Y105.438 E.01675
G1 X131.987 Y88.056 E.77152
G1 X131.454 Y88.056 E.01675
G1 X148.835 Y105.438 E.77152
G1 X148.302 Y105.438 E.01675
G1 X130.92 Y88.056 E.77152
G1 X130.386 Y88.056 E.01675
G1 X147.768 Y105.438 E.77152
G1 X147.234 Y105.438 E.01675
G1 X129.852 Y88.056 E.77152
G1 X129.318 Y88.056 E.01675
G1 X146.7 Y105.438 E.77152
G1 X146.166 Y105.438 E.01675
M73 P5 R51
G1 X128.785 Y88.056 E.77152
G1 X128.251 Y88.056 E.01675
G1 X145.633 Y105.438 E.77152
G1 X145.099 Y105.438 E.01675
G1 X127.717 Y88.056 E.77152
G1 X127.183 Y88.056 E.01675
G1 X144.565 Y105.438 E.77152
G1 X144.031 Y105.438 E.01675
G1 X126.649 Y88.056 E.77152
G1 X126.116 Y88.056 E.01675
G1 X143.497 Y105.438 E.77152
G1 X142.963 Y105.438 E.01675
G1 X125.582 Y88.056 E.77152
G1 X125.048 Y88.056 E.01675
G1 X142.43 Y105.438 E.77152
G1 X141.896 Y105.438 E.01675
G1 X124.514 Y88.056 E.77152
G1 X123.98 Y88.056 E.01675
G1 X141.362 Y105.438 E.77152
G1 X140.828 Y105.438 E.01675
G1 X123.446 Y88.056 E.77152
G1 X122.913 Y88.056 E.01675
G1 X140.294 Y105.438 E.77152
G1 X139.761 Y105.438 E.01675
M73 P5 R50
G1 X122.379 Y88.056 E.77152
G1 X121.845 Y88.056 E.01675
G1 X139.227 Y105.438 E.77152
G1 X138.693 Y105.438 E.01675
G1 X121.311 Y88.056 E.77152
G1 X120.777 Y88.056 E.01675
G1 X138.159 Y105.438 E.77152
G1 X137.625 Y105.438 E.01675
G1 X120.244 Y88.056 E.77152
G1 X119.71 Y88.056 E.01675
G1 X137.092 Y105.438 E.77152
G1 X136.558 Y105.438 E.01675
G1 X119.176 Y88.056 E.77152
G1 X118.642 Y88.056 E.01675
G1 X136.024 Y105.438 E.77152
G1 X135.49 Y105.438 E.01675
G1 X118.108 Y88.056 E.77152
G1 X117.575 Y88.056 E.01675
G1 X134.956 Y105.438 E.77152
G1 X134.422 Y105.438 E.01675
G1 X117.041 Y88.056 E.77152
G1 X116.507 Y88.056 E.01675
G1 X133.889 Y105.438 E.77152
G1 X133.355 Y105.438 E.01675
G1 X115.973 Y88.056 E.77152
G1 X115.439 Y88.056 E.01675
G1 X132.821 Y105.438 E.77152
G1 X132.287 Y105.438 E.01675
M73 P6 R50
G1 X114.905 Y88.056 E.77152
G1 X114.372 Y88.056 E.01675
G1 X131.753 Y105.438 E.77152
G1 X131.22 Y105.438 E.01675
G1 X113.838 Y88.056 E.77152
G1 X113.304 Y88.056 E.01675
G1 X130.686 Y105.438 E.77152
G1 X130.152 Y105.438 E.01675
G1 X112.77 Y88.056 E.77152
G1 X112.236 Y88.056 E.01675
G1 X129.618 Y105.438 E.77152
G1 X129.084 Y105.438 E.01675
G1 X111.703 Y88.056 E.77152
G1 X111.169 Y88.056 E.01675
G1 X128.551 Y105.438 E.77152
G1 X128.017 Y105.438 E.01675
G1 X110.635 Y88.056 E.77152
G1 X110.101 Y88.056 E.01675
G1 X127.483 Y105.438 E.77152
G1 X126.949 Y105.438 E.01675
G1 X109.567 Y88.056 E.77152
G1 X109.034 Y88.056 E.01675
G1 X126.415 Y105.438 E.77152
G1 X125.881 Y105.438 E.01675
G1 X108.5 Y88.056 E.77152
G1 X107.966 Y88.056 E.01675
G1 X125.348 Y105.438 E.77152
G1 X124.814 Y105.438 E.01675
G1 X107.432 Y88.056 E.77152
G1 X106.898 Y88.056 E.01675
G1 X124.28 Y105.438 E.77152
G1 X123.746 Y105.438 E.01675
G1 X106.364 Y88.056 E.77152
G1 X105.831 Y88.056 E.01675
G1 X123.212 Y105.438 E.77152
G1 X122.679 Y105.438 E.01675
G1 X105.297 Y88.056 E.77152
G1 X104.763 Y88.056 E.01675
G1 X122.145 Y105.438 E.77152
G1 X121.611 Y105.438 E.01675
G1 X104.229 Y88.056 E.77152
G1 X103.695 Y88.056 E.01675
G1 X121.077 Y105.438 E.77152
G1 X120.543 Y105.438 E.01675
G1 X103.162 Y88.056 E.77152
G1 X102.628 Y88.056 E.01675
G1 X120.01 Y105.438 E.77152
G1 X119.476 Y105.438 E.01675
G1 X102.094 Y88.056 E.77152
G1 X101.56 Y88.056 E.01675
M73 P7 R50
G1 X118.942 Y105.438 E.77152
G1 X118.408 Y105.438 E.01675
G1 X101.026 Y88.056 E.77152
G1 X100.492 Y88.056 E.01675
G1 X117.874 Y105.438 E.77152
G1 X117.34 Y105.438 E.01675
G1 X99.959 Y88.056 E.77152
G1 X99.425 Y88.056 E.01675
G1 X116.807 Y105.438 E.77152
G1 X116.273 Y105.438 E.01675
G1 X98.891 Y88.056 E.77152
G1 X98.357 Y88.056 E.01675
G1 X115.739 Y105.438 E.77152
G1 X115.205 Y105.438 E.01675
G1 X97.823 Y88.056 E.77152
G1 X97.29 Y88.056 E.01675
G1 X114.671 Y105.438 E.77152
G1 X114.138 Y105.438 E.01675
M73 P7 R49
G1 X96.756 Y88.056 E.77152
G1 X96.222 Y88.056 E.01675
G1 X113.604 Y105.438 E.77152
G1 X113.07 Y105.438 E.01675
G1 X95.688 Y88.056 E.77152
G1 X95.154 Y88.056 E.01675
G1 X112.536 Y105.438 E.77152
G1 X112.002 Y105.438 E.01675
G1 X94.621 Y88.056 E.77152
G1 X94.087 Y88.056 E.01675
G1 X111.469 Y105.438 E.77152
G1 X110.935 Y105.438 E.01675
G1 X93.553 Y88.056 E.77152
G1 X93.019 Y88.056 E.01675
G1 X110.401 Y105.438 E.77152
G1 X109.867 Y105.438 E.01675
G1 X92.485 Y88.056 E.77152
G1 X91.951 Y88.056 E.01675
G1 X109.333 Y105.438 E.77152
G1 X108.799 Y105.438 E.01675
G1 X91.418 Y88.056 E.77152
G1 X90.884 Y88.056 E.01675
G1 X108.266 Y105.438 E.77152
G1 X107.732 Y105.438 E.01675
G1 X90.35 Y88.056 E.77152
G1 X89.816 Y88.056 E.01675
G1 X107.198 Y105.438 E.77152
G1 X106.664 Y105.438 E.01675
G1 X89.282 Y88.056 E.77152
G1 X88.749 Y88.056 E.01675
G1 X106.13 Y105.438 E.77152
G1 X105.597 Y105.438 E.01675
G1 X88.215 Y88.056 E.77152
G1 X87.681 Y88.056 E.01675
M73 P8 R49
G1 X105.063 Y105.438 E.77152
G1 X104.529 Y105.438 E.01675
G1 X87.147 Y88.056 E.77152
G1 X86.613 Y88.056 E.01675
G1 X103.995 Y105.438 E.77152
G1 X103.461 Y105.438 E.01675
G1 X86.08 Y88.056 E.77152
G1 X85.546 Y88.056 E.01675
G1 X102.927 Y105.438 E.77152
G1 X102.394 Y105.438 E.01675
G1 X85.012 Y88.056 E.77152
G1 X84.478 Y88.056 E.01675
G1 X101.86 Y105.438 E.77152
G1 X101.326 Y105.438 E.01675
G1 X83.944 Y88.056 E.77152
G1 X83.41 Y88.056 E.01675
G1 X100.792 Y105.438 E.77152
G1 X100.258 Y105.438 E.01675
G1 X82.877 Y88.056 E.77152
G1 X82.343 Y88.056 E.01675
G1 X99.725 Y105.438 E.77152
G1 X99.191 Y105.438 E.01675
G1 X81.809 Y88.056 E.77152
G1 X81.275 Y88.056 E.01675
G1 X98.657 Y105.438 E.77152
G1 X98.123 Y105.438 E.01675
G1 X80.741 Y88.056 E.77152
G1 X80.208 Y88.056 E.01675
G1 X97.589 Y105.438 E.77152
G1 X97.056 Y105.438 E.01675
G1 X79.674 Y88.056 E.77152
G1 X79.14 Y88.056 E.01675
G1 X96.522 Y105.438 E.77152
G1 X95.988 Y105.438 E.01675
G1 X78.606 Y88.056 E.77152
G1 X78.072 Y88.056 E.01675
G1 X95.454 Y105.438 E.77152
G1 X94.92 Y105.438 E.01675
G1 X77.539 Y88.056 E.77152
G1 X77.005 Y88.056 E.01675
G1 X94.386 Y105.438 E.77152
G1 X93.853 Y105.438 E.01675
G1 X76.471 Y88.056 E.77152
G1 X75.937 Y88.056 E.01675
G1 X93.319 Y105.438 E.77152
G1 X92.785 Y105.438 E.01675
G1 X75.403 Y88.056 E.77152
G1 X74.869 Y88.056 E.01675
G1 X92.251 Y105.438 E.77152
G1 X91.717 Y105.438 E.01675
M73 P9 R49
G1 X74.336 Y88.056 E.77152
G1 X73.802 Y88.056 E.01675
G1 X91.184 Y105.438 E.77152
G1 X90.65 Y105.438 E.01675
G1 X73.268 Y88.056 E.77152
G1 X72.734 Y88.056 E.01675
G1 X90.116 Y105.438 E.77152
G1 X89.582 Y105.438 E.01675
G1 X72.2 Y88.056 E.77152
G1 X71.667 Y88.056 E.01675
M73 P9 R48
G1 X89.048 Y105.438 E.77152
G1 X88.515 Y105.438 E.01675
G1 X71.133 Y88.056 E.77152
G1 X70.599 Y88.056 E.01675
G1 X87.981 Y105.438 E.77152
G1 X87.447 Y105.438 E.01675
G1 X70.065 Y88.056 E.77152
G1 X69.531 Y88.056 E.01675
G1 X86.913 Y105.438 E.77152
G1 X86.379 Y105.438 E.01675
G1 X68.998 Y88.056 E.77152
G1 X68.464 Y88.056 E.01675
G1 X85.845 Y105.438 E.77152
G1 X85.312 Y105.438 E.01675
G1 X67.93 Y88.056 E.77152
G1 X67.396 Y88.056 E.01675
G1 X84.778 Y105.438 E.77152
G1 X84.244 Y105.438 E.01675
G1 X66.862 Y88.056 E.77152
G1 X66.328 Y88.056 E.01675
G1 X83.71 Y105.438 E.77152
G1 X83.176 Y105.438 E.01675
G1 X65.795 Y88.056 E.77152
G1 X65.261 Y88.056 E.01675
G1 X82.643 Y105.438 E.77152
G1 X82.109 Y105.438 E.01675
G1 X64.727 Y88.056 E.77152
G1 X64.193 Y88.056 E.01675
G1 X81.575 Y105.438 E.77152
G1 X81.041 Y105.438 E.01675
G1 X63.659 Y88.056 E.77152
G1 X63.126 Y88.056 E.01675
G1 X80.507 Y105.438 E.77152
G1 X79.974 Y105.438 E.01675
G1 X62.592 Y88.056 E.77152
G1 X62.058 Y88.056 E.01675
G1 X79.44 Y105.438 E.77152
G1 X78.906 Y105.438 E.01675
G1 X61.524 Y88.056 E.77152
G1 X60.99 Y88.056 E.01675
G1 X78.372 Y105.438 E.77152
G1 X77.838 Y105.438 E.01675
M73 P10 R48
G1 X60.457 Y88.056 E.77152
G1 X59.923 Y88.056 E.01675
G1 X77.304 Y105.438 E.77152
G1 X76.771 Y105.438 E.01675
G1 X59.389 Y88.056 E.77152
G1 X58.855 Y88.056 E.01675
G1 X76.237 Y105.438 E.77152
G1 X75.703 Y105.438 E.01675
G1 X58.321 Y88.056 E.77152
G1 X57.787 Y88.056 E.01675
G1 X75.169 Y105.438 E.77152
G1 X74.635 Y105.438 E.01675
G1 X57.254 Y88.056 E.77152
G1 X56.72 Y88.056 E.01675
G1 X74.102 Y105.438 E.77152
G1 X73.568 Y105.438 E.01675
G1 X56.186 Y88.056 E.77152
G1 X55.652 Y88.056 E.01675
G1 X73.034 Y105.438 E.77152
G1 X72.5 Y105.438 E.01675
G1 X55.118 Y88.056 E.77152
G1 X54.585 Y88.056 E.01675
G1 X71.966 Y105.438 E.77152
G1 X71.433 Y105.438 E.01675
G1 X54.051 Y88.056 E.77152
G1 X53.517 Y88.056 E.01675
G1 X70.899 Y105.438 E.77152
G1 X70.365 Y105.438 E.01675
G1 X52.983 Y88.056 E.77152
G1 X52.449 Y88.056 E.01675
G1 X69.831 Y105.438 E.77152
G1 X69.297 Y105.438 E.01675
G1 X51.915 Y88.056 E.77152
G1 X51.382 Y88.056 E.01675
G1 X68.763 Y105.438 E.77152
G1 X68.23 Y105.438 E.01675
G1 X50.848 Y88.056 E.77152
G1 X50.314 Y88.056 E.01675
G1 X67.696 Y105.438 E.77152
